projects/fh/img/icons/wp.svg

<svg width="19" height="19" viewBox="0 0 19 19" fill="none" xmlns="http://www.w3.org/2000/svg">
<path fill="currentColor" d="M0.00381271 19L1.28821 14.2804C0.441893 12.8296 -0.0027461 11.1796 1.27606e-05 9.49999C1.27606e-05 4.25315 4.25316 0 9.50001 0C14.7469 0 19 4.25315 19 9.49999C19 14.7468 14.7469 19 9.50001 19C7.82115 19.0027 6.17183 18.5584 4.72151 17.7127L0.00381271 19ZM6.07146 5.0426C5.94878 5.05021 5.8289 5.08253 5.71901 5.1376C5.61595 5.19595 5.52188 5.26891 5.43971 5.3542C5.32571 5.46155 5.26111 5.55465 5.19176 5.6449C4.84065 6.10184 4.65179 6.66274 4.65501 7.239C4.65691 7.70449 4.77851 8.15764 4.96851 8.58134C5.35706 9.43824 5.99641 10.3455 6.84096 11.1862C7.04426 11.3886 7.24281 11.5919 7.45656 11.7809C8.50478 12.7038 9.7539 13.3694 11.1046 13.7246L11.6451 13.8073C11.8209 13.8168 11.9966 13.8035 12.1733 13.7949C12.45 13.7807 12.7201 13.7057 12.9647 13.5755C13.0891 13.5114 13.2105 13.4417 13.3285 13.3665C13.3285 13.3665 13.3694 13.3399 13.4473 13.281C13.5755 13.186 13.6544 13.1185 13.7608 13.0074C13.8396 12.9257 13.908 12.8297 13.9603 12.7205C14.0344 12.5656 14.1085 12.2702 14.1389 12.0241C14.1617 11.836 14.155 11.7334 14.1522 11.6698C14.1484 11.5681 14.0638 11.4627 13.9717 11.418L13.4188 11.1701C13.4188 11.1701 12.5923 10.81 12.0878 10.5801C12.0346 10.557 11.9776 10.5438 11.9197 10.5412C11.8547 10.5345 11.789 10.5418 11.727 10.5626C11.6651 10.5835 11.6083 10.6173 11.5606 10.6618V10.6599C11.5558 10.6599 11.4922 10.7141 10.8053 11.5463C10.7659 11.5993 10.7116 11.6393 10.6493 11.6613C10.5871 11.6833 10.5197 11.6862 10.4557 11.6698C10.3938 11.6532 10.3332 11.6323 10.2743 11.6071C10.1565 11.5577 10.1156 11.5387 10.0349 11.5035L10.0301 11.5016C9.48662 11.2644 8.98342 10.9438 8.53861 10.5516C8.41891 10.4471 8.30776 10.3331 8.19376 10.2229C7.82001 9.86502 7.49429 9.46011 7.22476 9.01834L7.16871 8.92809C7.12845 8.86745 7.0959 8.80203 7.07181 8.73334C7.03571 8.59369 7.12976 8.48159 7.12976 8.48159C7.12976 8.48159 7.36061 8.22889 7.46796 8.09209C7.55734 7.9784 7.64074 7.86012 7.71781 7.73775C7.82991 7.55725 7.86506 7.372 7.80616 7.22855C7.54016 6.57875 7.26466 5.9318 6.98156 5.2896C6.92551 5.1623 6.75926 5.0711 6.60821 5.05305C6.55691 5.04735 6.50561 5.04165 6.45431 5.03785C6.32673 5.03151 6.19889 5.03278 6.07146 5.04165V5.0426Z" />
</svg>

<svg width="19" height="19" fill="none" xmlns="http://www.w3.org/2000/svg"><path fill="currentColor" d="M.004 19l1.284-4.72A9.456 9.456 0 010 9.5 9.5 9.5 0 019.5 0 9.5 9.5 0 0119 9.5 9.5 9.5 0 019.5 19a9.456 9.456 0 01-4.778-1.287L.004 19zM6.07 5.043a.913.913 0 00-.352.095 1.228 1.228 0 00-.28.216c-.113.108-.178.2-.247.29a2.593 2.593 0 00-.537 1.595c.002.465.124.919.314 1.342.388.857 1.027 1.764 1.872 2.605.203.203.402.406.616.595a8.975 8.975 0 003.648 1.944l.54.082c.176.01.352-.004.528-.012a1.89 1.89 0 00.792-.22c.124-.064.245-.133.364-.208 0 0 .04-.027.118-.086.129-.095.207-.163.314-.274.079-.081.147-.177.2-.287.073-.154.147-.45.178-.696.023-.188.016-.29.013-.354-.004-.102-.088-.207-.18-.252l-.553-.248s-.827-.36-1.331-.59a.476.476 0 00-.168-.039.458.458 0 00-.36.12v-.001c-.004 0-.068.054-.755.886a.332.332 0 01-.35.124 1.35 1.35 0 01-.18-.063l-.24-.103-.005-.002a5.707 5.707 0 01-1.491-.95c-.12-.105-.231-.219-.345-.33a5.98 5.98 0 01-.97-1.204l-.055-.09a.877.877 0 01-.097-.195.305.305 0 01.058-.251s.23-.253.338-.39c.09-.114.173-.232.25-.354.112-.18.147-.366.088-.51a79.095 79.095 0 00-.824-1.938c-.056-.128-.223-.219-.374-.237a4.217 4.217 0 00-.154-.015 3.215 3.215 0 00-.383.004z"/></svg>
